X: 34766
T: Road To Naul, The
R: jig
M: 6/8
K: Amixolydian
|:AeA Bcd|~e3 gab|AeA cde|dB/c/d ~e3|
AeA Bcd|~e3 gab|~a3 age|1 def edB:|2 def ~e3||
|:~a3 age|def ~e3|~a3 age|dB/c/d ~e3|
~a3 age|def ~e3|ab=c' bag|efg edB:|

